X:1
T:the White Petticoat
B:O'Neill's 1850, #773
Z:Moshe Braner, 2001; slightly modified by John Chambers, 2009
D:Solas
D:Patrick Street: Cornerboys
D:Planet Squeezebox, disc 1, track 13
R:jig
M:6/8
L:1/8
K:Em
|:"Em"Bed cBA | GFE B,EG | "B7"FBB cBB |     eBB cBB \
| "Em"Bed cBA | GFE B,EG | "B7"FFB cBA | "Em"GEE E3 :|
|: "C"gec Gce | gaf gec | "Am"cBA EAc | "Em"Be^d eBG \
| "B7"FBB "Em"GBB | "Am"FcA GFE | "B7"B,^DF cBA | "Em"GEE E3 :|
